X: 45
T: No_137_Love_Song_(c).krn
N: Derived from No_137_Love_Song_(c).krn
%%abc-version 2.0
%%abcx-abcm2ps-target-version 5.9.1 (29 Sep 2008)
%%abc-creator hum2abc beta
%%abcx-conversion-date 2019/03/15 08:35:44
%%humdrum-veritas 1372371050
%%humdrum-veritas-data 1893184207
%%linebreak <none>
%%barnumbers 0
L: 1/4
M: 2/4
K: F clef=bass
[K:clef=bass][M:2/4]CD ||  
[M:3/4]C2A, | 
G,3 | 
DCD | 
C3 ||  
[M:2/4]C(C ||  
[M:3/4]B,2)(G, ||  
[M:2/4]F,)z ||  
[M:3/4]CG,A, | 
G,3 ||  
[M:2/4]G,(G, ||  
[M:3/4](F,2)D,) ||  
[M:2/4]C,z ||  
[M:3/4]G,F,G, | 
F,3 ||  
[M:2/4]G,(G, | 
F,2) | 
(F,D,) ||  
[M:3/4]C,3 ||  
[M:2/4]C,z | 
C,z | 
CG, ||  
[M:3/4]C3 ||  
[M:2/4]B,2 | 
DC | 
G,2 | 
C2 | 
F,2 | 
F,D, | 
C,/ z/C, | 
C,2 | 
C,z | 
(G,2 | 
(F,2) | 
(D,2) | 
C,)C,- | 
C,C, |]  



